www/assets/icons/forum.svg

<svg xmlns="http://www.w3.org/2000/svg" width="24" height="24" viewBox="0 0 24 24" fill='currentColor'><path d="M21 6h-2v9H6v2c0 .55.45 1 1 1h11l4 4V7c0-.55-.45-1-1-1m-4 6V3c0-.55-.45-1-1-1H3c-.55 0-1 .45-1 1v14l4-4h10c.55 0 1-.45 1-1"/></svg>

<svg width="24" height="24" viewBox="0 0 24 24" xmlns="http://www.w3.org/2000/svg" fill='currentColor'><path d="M21 6H19V15H6V17C6 17.55 6.45 18 7 18H18L22 22V7C22 6.45 21.55 6 21 6ZM17 12V3C17 2.45 16.55 2 16 2H3C2.45 2 2 2.45 2 3V17L6 13H16C16.55 13 17 12.55 17 12Z"/></svg>
